dataset/lvim/icon.svg

<?xml version="1.0" encoding="UTF-8" standalone="no"?>
<svg
   height="128px"
   viewBox="0 0 128 128"
   width="128px"
   version="1.1"
   id="svg286"
   xmlns="http://www.w3.org/2000/svg"
   xmlns:svg="http://www.w3.org/2000/svg">
  <defs
     id="defs290" />
  <linearGradient
     id="a"
     gradientUnits="userSpaceOnUse"
     x1="11.999989"
     x2="115.999989"
     y1="64"
     y2="64">
    <stop
       offset="0"
       stop-color="#3d3846"
       id="stop252" />
    <stop
       offset="0.05"
       stop-color="#77767b"
       id="stop254" />
    <stop
       offset="0.1"
       stop-color="#5e5c64"
       id="stop256" />
    <stop
       offset="0.899999"
       stop-color="#504e56"
       id="stop258" />
    <stop
       offset="0.95"
       stop-color="#77767b"
       id="stop260" />
    <stop
       offset="1"
       stop-color="#3d3846"
       id="stop262" />
  </linearGradient>
  <linearGradient
     id="b"
     gradientUnits="userSpaceOnUse"
     x1="12"
     x2="112.041023"
     y1="60"
     y2="80.988281">
    <stop
       offset="0"
       stop-color="#77767b"
       id="stop265" />
    <stop
       offset="0.384443"
       stop-color="#9a9996"
       id="stop267" />
    <stop
       offset="0.720567"
       stop-color="#77767b"
       id="stop269" />
    <stop
       offset="1"
       stop-color="#68666f"
       id="stop271" />
  </linearGradient>
  <path
     d="m 20 22 h 88 c 4.417969 0 8 3.582031 8 8 v 78 c 0 4.417969 -3.582031 8 -8 8 h -88 c -4.417969 0 -8 -3.582031 -8 -8 v -78 c 0 -4.417969 3.582031 -8 8 -8 z m 0 0"
     fill="url(#a)"
     id="path274"
     clip-path="none" />
  <path
     d="m 20 12 h 88 c 4.417969 0 8 3.582031 8 8 v 80 c 0 4.417969 -3.582031 8 -8 8 h -88 c -4.417969 0 -8 -3.582031 -8 -8 v -80 c 0 -4.417969 3.582031 -8 8 -8 z m 0 0"
     fill="url(#b)"
     id="path276"
     clip-path="none" />
  <path
     d="m 20 14 h 88 c 3.3125 0 6 2.6875 6 6 v 80 c 0 3.3125 -2.6875 6 -6 6 h -88 c -3.3125 0 -6 -2.6875 -6 -6 v -80 c 0 -3.3125 2.6875 -6 6 -6 z m 0 0"
     fill="#241f31"
     id="path278"
     clip-path="none" />
  <path
     style="opacity:0.2;stroke-width:1"
     d="m 52.257939,46.95667 -5.302252,31.303993 h 4.870866 16.915565 1.589651 L 83.133937,46.95667 H 78.26307 L 69.21766,69.075984 V 55.577496 c -0.817086,0.273193 -1.696537,0.421191 -2.608666,0.421191 -0.912129,0 -1.79158,-0.147998 -2.608666,-0.421191 V 73.043331 H 52.709691 L 57.125397,46.95667 Z"
     id="path2-3"
     clip-path="none" />
  <path
     style="opacity:0.2;stroke-width:1"
     d="M 64.000328,29.565563 A 31.303993,31.303993 0 0 0 32.696335,60.869556 31.303993,31.303993 0 0 0 64.000328,92.173548 31.303993,31.303993 0 0 0 95.30432,60.869556 31.303993,31.303993 0 0 0 64.000328,29.565563 Z m 0,5.217332 a 26.08666,26.08666 0 0 1 26.08666,26.086661 26.08666,26.08666 0 0 1 -26.08666,26.08666 26.08666,26.08666 0 0 1 -26.086661,-26.08666 26.08666,26.08666 0 0 1 26.086661,-26.086661 z"
     id="path3-5"
     clip-path="none" />
  <path
     style="fill:#ffffff;stroke-width:1"
     d="m 52.257418,45.217559 h 4.86951 l -5.300375,31.303993 h -4.86951 z"
     id="path4-6"
     clip-path="none" />
  <path
     style="fill:#ffffff;stroke-width:1"
     d="m 68.74097,71.30422 v 5.217332 H 46.957043 l 1.460853,-5.217332 z"
     id="path5"
     clip-path="none" />
  <path
     style="fill:#6f6fee;stroke-width:1"
     d="M 64.000328,27.826452 A 31.303993,31.303993 0 0 0 32.696335,59.130445 31.303993,31.303993 0 0 0 64.000328,90.434438 31.303993,31.303993 0 0 0 95.30432,59.130445 31.303993,31.303993 0 0 0 64.000328,27.826452 Z m 0,5.217333 a 26.08666,26.08666 0 0 1 26.08666,26.08666 26.08666,26.08666 0 0 1 -26.08666,26.086661 26.08666,26.08666 0 0 1 -26.086661,-26.086661 26.08666,26.08666 0 0 1 26.086661,-26.08666 z"
     id="path6"
     clip-path="none" />
  <path
     style="fill:#ffffff;stroke-width:1"
     d="M 64.000328,53.837707 V 76.17373 H 69.21766 V 53.837707 c -0.817086,0.273193 -1.696537,0.423228 -2.608666,0.423228 -0.912129,0 -1.79158,-0.150033 -2.608666,-0.423228 z"
     id="path7-2"
     clip-path="none" />
  <path
     style="fill:#ffffff;stroke-width:1"
     d="m 78.262879,45.217559 h 4.86951 L 70.330691,76.521552 h -4.86951 z"
     id="path8-9"
     clip-path="none" />
  <path
     style="opacity:0.2;stroke-width:1"
     d="m 34.428646,41.746131 c -1.846414,0.03616 -3.494343,0.214511 -4.925214,0.560456 -2.543745,0.615 -4.678625,1.829326 -5.322617,4.194925 -0.644011,2.365597 0.505455,4.770167 2.289365,6.946253 1.453357,1.772853 3.816374,3.562537 6.297494,5.380374 0.09009,-1.39957 0.271944,-2.773297 0.540063,-4.116802 -1.662485,-1.313175 -3.335353,-2.566794 -4.235674,-3.66504 -1.396766,-1.703807 -1.632294,-2.809205 -1.494557,-3.31518 0.137738,-0.505975 0.881938,-1.260979 2.873603,-1.742507 1.991681,-0.481529 4.953126,-0.606884 8.549503,-0.312496 7.19277,0.588771 16.935529,2.825041 27.343446,6.579409 10.407899,3.754363 19.5147,8.319309 25.713012,12.560998 3.099165,2.120846 5.474773,4.169085 6.871522,5.872895 1.396748,1.703805 1.635698,2.812603 1.497948,3.318578 -0.13774,0.505976 -0.885328,1.260981 -2.876993,1.742508 -1.477131,0.357123 -3.824548,0.508502 -6.253338,0.448363 -0.716774,1.273497 -1.522991,2.489565 -2.404859,3.64466 3.684306,0.279804 7.133501,0.182523 9.602465,-0.414397 2.543755,-0.615005 4.682035,-1.832727 5.326035,-4.198323 0.64399,-2.365601 -0.51225,-4.763372 -2.29617,-6.939459 C 99.739766,66.115263 97.140995,63.917213 93.853937,61.66778 87.279785,57.168909 77.964604,52.522329 67.318899,48.682195 56.673211,44.842058 46.71442,42.537042 39.085532,41.912569 38.131926,41.834518 37.21964,41.781753 36.34099,41.756327 c -0.658984,-0.01908 -1.296855,-0.02224 -1.912344,-0.01026 z"
     id="path9"
     clip-path="none" />
  <path
     style="fill:#59d4f1;stroke-width:1"
     d="m 34.428646,40.00702 c -1.846414,0.03616 -3.494343,0.214511 -4.925214,0.560457 -2.543745,0.614999 -4.678625,1.829325 -5.322617,4.194924 -0.644011,2.365598 0.505455,4.770167 2.289365,6.946253 1.453357,1.772853 3.816374,3.562537 6.297494,5.380374 0.09009,-1.39957 0.271944,-2.773297 0.540063,-4.116802 -1.662485,-1.313174 -3.335353,-2.566793 -4.235674,-3.66504 -1.396766,-1.703807 -1.632294,-2.809205 -1.494557,-3.31518 0.137738,-0.505975 0.881938,-1.260978 2.873603,-1.742507 1.991681,-0.481528 4.953126,-0.606883 8.549503,-0.312496 7.19277,0.588771 16.935529,2.825041 27.343446,6.579409 10.407899,3.754363 19.5147,8.319309 25.713012,12.560999 3.099165,2.120845 5.474773,4.169085 6.871522,5.872895 1.396748,1.703805 1.635698,2.812603 1.497948,3.318578 -0.13774,0.505975 -0.885328,1.26098 -2.876993,1.742507 -1.477131,0.357123 -3.824548,0.508502 -6.253338,0.448364 -0.716774,1.273496 -1.522991,2.489564 -2.404859,3.644659 3.684306,0.279804 7.133501,0.182523 9.602465,-0.414397 2.543755,-0.615005 4.682035,-1.832727 5.326035,-4.198323 0.64399,-2.365601 -0.51225,-4.763372 -2.29617,-6.939458 C 99.739766,64.376152 97.140995,62.178103 93.853937,59.928669 87.279785,55.429798 77.964604,50.783218 67.318899,46.943084 56.673211,43.102947 46.71442,40.797931 39.085532,40.173458 38.131926,40.095407 37.21964,40.042642 36.34099,40.017217 c -0.658984,-0.01908 -1.296855,-0.02224 -1.912344,-0.01026 z"
     id="path10"
     clip-path="none" />
  <circle
     style="opacity:0.2;stroke-width:1"
     cx="66.608994"
     cy="49.565334"
     r="4.3477769"
     id="circle10"
     clip-path="none" />
  <circle
     style="fill:#ffffff;stroke-width:1"
     cx="66.608994"
     cy="47.826225"
     r="4.3477769"
     id="circle11"
     clip-path="none" />
</svg>

<svg xmlns="http://www.w3.org/2000/svg" width="128" height="128" viewBox="0 0 128 128"><linearGradient id="a" x1="12" x2="116" y1="64" y2="64" gradientUnits="userSpaceOnUse"><stop offset="0" stop-color="#3d3846"/><stop offset=".05" stop-color="#77767b"/><stop offset=".1" stop-color="#5e5c64"/><stop offset=".9" stop-color="#504e56"/><stop offset=".95" stop-color="#77767b"/><stop offset="1" stop-color="#3d3846"/></linearGradient><linearGradient id="b" x1="12" x2="112.041" y1="60" y2="80.988" gradientUnits="userSpaceOnUse"><stop offset="0" stop-color="#77767b"/><stop offset=".384" stop-color="#9a9996"/><stop offset=".721" stop-color="#77767b"/><stop offset="1" stop-color="#68666f"/></linearGradient><path fill="url(#a)" d="M20 22h88a8 8 0 0 1 8 8v78a8 8 0 0 1-8 8H20a8 8 0 0 1-8-8V30a8 8 0 0 1 8-8m0 0"/><path fill="url(#b)" d="M20 12h88a8 8 0 0 1 8 8v80a8 8 0 0 1-8 8H20a8 8 0 0 1-8-8V20a8 8 0 0 1 8-8m0 0"/><path fill="#241f31" d="M20 14h88c3.313 0 6 2.688 6 6v80c0 3.313-2.687 6-6 6H20c-3.312 0-6-2.687-6-6V20c0-3.312 2.688-6 6-6m0 0"/><path d="M52.258 46.957 46.956 78.26h23.376l12.802-31.304h-4.87l-9.046 22.119V55.577a8.2 8.2 0 0 1-2.609.422A8.2 8.2 0 0 1 64 55.577v17.466H52.71l4.415-26.086Z" style="opacity:.2;stroke-width:1"/><path d="M64 29.566A31.304 31.304 0 0 0 32.696 60.87 31.304 31.304 0 0 0 64 92.174 31.304 31.304 0 0 0 95.304 60.87 31.304 31.304 0 0 0 64 29.566m0 5.217A26.087 26.087 0 0 1 90.087 60.87 26.087 26.087 0 0 1 64 86.956 26.087 26.087 0 0 1 37.914 60.87 26.087 26.087 0 0 1 64 34.783" style="opacity:.2;stroke-width:1"/><path d="M52.257 45.218h4.87l-5.3 31.304h-4.87z" style="fill:#fff;stroke-width:1"/><path d="M68.741 71.304v5.218H46.957l1.46-5.218z" style="fill:#fff;stroke-width:1"/><path d="M64 27.826A31.304 31.304 0 0 0 32.696 59.13 31.304 31.304 0 0 0 64 90.434 31.304 31.304 0 0 0 95.304 59.13 31.304 31.304 0 0 0 64 27.826m0 5.218A26.087 26.087 0 0 1 90.087 59.13 26.087 26.087 0 0 1 64 85.217 26.087 26.087 0 0 1 37.914 59.13 26.087 26.087 0 0 1 64 33.044" style="fill:#6f6fee;stroke-width:1"/><path d="M64 53.838v22.336h5.218V53.838a8.2 8.2 0 0 1-2.609.423c-.912 0-1.792-.15-2.609-.423" style="fill:#fff;stroke-width:1"/><path d="M78.263 45.218h4.87L70.33 76.522h-4.87z" style="fill:#fff;stroke-width:1"/><path d="M34.429 41.746c-1.847.036-3.495.215-4.926.56-2.543.616-4.678 1.83-5.322 4.196s.505 4.77 2.29 6.946c1.453 1.773 3.816 3.562 6.297 5.38q.137-2.1.54-4.117c-1.663-1.313-3.336-2.566-4.236-3.665-1.397-1.704-1.632-2.809-1.494-3.315s.881-1.26 2.873-1.742 4.953-.607 8.55-.313c7.192.589 16.935 2.825 27.343 6.58s19.515 8.319 25.713 12.56c3.1 2.121 5.475 4.17 6.872 5.873 1.396 1.704 1.635 2.813 1.498 3.319-.138.506-.886 1.261-2.877 1.743-1.478.357-3.825.508-6.254.448a31 31 0 0 1-2.405 3.645c3.685.28 7.134.182 9.603-.415 2.544-.615 4.682-1.833 5.326-4.198s-.512-4.764-2.296-6.94-4.383-4.374-7.67-6.623c-6.574-4.5-15.89-9.146-26.535-12.986-10.646-3.84-20.605-6.145-28.233-6.77a52 52 0 0 0-2.745-.156 40 40 0 0 0-1.912-.01" style="opacity:.2;stroke-width:1"/><path d="M34.429 40.007c-1.847.036-3.495.215-4.926.56-2.543.615-4.678 1.83-5.322 4.195s.505 4.77 2.29 6.947c1.453 1.773 3.816 3.562 6.297 5.38q.137-2.1.54-4.117c-1.663-1.313-3.336-2.567-4.236-3.665-1.397-1.704-1.632-2.809-1.494-3.315s.881-1.261 2.873-1.743c1.992-.481 4.953-.606 8.55-.312 7.192.589 16.935 2.825 27.343 6.58s19.515 8.319 25.713 12.56c3.1 2.121 5.475 4.17 6.872 5.873 1.396 1.704 1.635 2.813 1.498 3.319-.138.506-.886 1.26-2.877 1.742-1.478.358-3.825.509-6.254.449a31 31 0 0 1-2.405 3.644c3.685.28 7.134.183 9.603-.414 2.544-.615 4.682-1.833 5.326-4.198s-.512-4.764-2.296-6.94-4.383-4.374-7.67-6.623c-6.574-4.5-15.89-9.146-26.535-12.986-10.646-3.84-20.605-6.145-28.233-6.77a52 52 0 0 0-2.745-.156 40 40 0 0 0-1.912-.01" style="fill:#59d4f1;stroke-width:1"/><circle cx="66.609" cy="49.565" r="4.348" style="opacity:.2;stroke-width:1"/><circle cx="66.609" cy="47.826" r="4.348" style="fill:#fff;stroke-width:1"/></svg>
